X: 1
T: Great Tune The World Was Waiting For, The
M: 2/4
L: 1/8
R: polka
K: Dmaj
|:fA Bc|d2 df|ef/e/ ce|dc BA|fA Bc|d2 df|eA Bc|1ed de:|2ed df||
|:aA gA|fd df|e/f/e ce|dc BA|aA gA|fd df|eA Bc|1ed df:|2ed d2||
